wp-content/plugins/one-click-demo-import/assets/images/warning.svg

<svg width="124" height="124" viewBox="0 0 124 124" fill="none" xmlns="http://www.w3.org/2000/svg">
<path d="M62 0C27.75 0 0 27.75 0 62C0 96.25 27.75 124 62 124C96.25 124 124 96.25 124 62C124 27.75 96.25 0 62 0ZM116 62C116 91.75 91.75 116 62 116C32.25 116 8 92 8 62C8 32.5 32 8 62 8C91.5 8 116 32.25 116 62Z" fill="#FFB900"/>
<path d="M71.75 82.625C71.75 77.4688 67.5312 73.25 62.375 73.25C57.1016 73.25 53 77.4688 53 82.625C53 87.8984 57.1016 92 62.375 92C67.5312 92 71.75 87.8984 71.75 82.625ZM54.0547 35.0469L55.5781 66.9219C55.6953 68.3281 56.9844 69.5 58.3906 69.5H66.2422C67.6484 69.5 68.9375 68.3281 69.0547 66.9219L70.5781 35.0469C70.6953 33.4062 69.4062 32 67.7656 32H56.8672C55.2266 32 53.9375 33.4062 54.0547 35.0469Z" fill="#FFB900"/>
</svg>

<svg xmlns="http://www.w3.org/2000/svg" width="124" height="124" fill="none"><path fill="#FFB900" d="M62 0C27.75 0 0 27.75 0 62s27.75 62 62 62 62-27.75 62-62S96.25 0 62 0m54 62c0 29.75-24.25 54-54 54S8 92 8 62C8 32.5 32 8 62 8c29.5 0 54 24.25 54 54"/><path fill="#FFB900" d="M71.75 82.625c0-5.156-4.219-9.375-9.375-9.375-5.273 0-9.375 4.219-9.375 9.375C53 87.898 57.102 92 62.375 92c5.156 0 9.375-4.102 9.375-9.375M54.055 35.047l1.523 31.875c.117 1.406 1.406 2.578 2.813 2.578h7.851c1.406 0 2.695-1.172 2.813-2.578l1.523-31.875c.117-1.64-1.172-3.047-2.812-3.047H56.867c-1.64 0-2.93 1.406-2.812 3.047"/></svg>
